public/images/Microsoft Logo.svg

<svg width="123" height="26" viewBox="0 0 123 26" fill="none" xmlns="http://www.w3.org/2000/svg">
<g clip-path="url(#clip0_2_155)">
<path d="M43.5636 14.9752L42.8364 17.031H42.7758C42.6546 16.5674 42.4324 15.862 42.0689 15.0155L38.1705 5.24029H34.353V20.8201H36.8778V11.2062C36.8778 10.6015 36.8778 9.91626 36.8576 9.06975C36.8374 8.6465 36.797 8.32402 36.7768 8.08215H36.8374C36.9586 8.68681 37.1 9.13022 37.201 9.41239L41.8871 20.7798H43.6646L48.3102 9.31161C48.4112 9.0496 48.5122 8.52557 48.6132 8.08215H48.6738C48.6132 9.23099 48.5728 10.2589 48.5526 10.8837V20.7597H51.2391V5.19998H47.5629L43.5636 14.9752ZM53.7841 9.59378H56.4099V20.7597H53.7841V9.59378ZM55.1172 4.8775C54.6728 4.8775 54.3093 5.03874 54.0063 5.32091C53.7033 5.60309 53.5417 5.96588 53.5417 6.40929C53.5417 6.83254 53.7033 7.19533 54.0063 7.4775C54.3093 7.75967 54.6728 7.90076 55.1172 7.90076C55.5616 7.90076 55.9453 7.73952 56.2281 7.4775C56.5311 7.19533 56.6927 6.83254 56.6927 6.40929C56.6927 5.98603 56.5311 5.62324 56.2281 5.32091C55.9655 5.03874 55.5818 4.8775 55.1172 4.8775ZM65.7215 9.49301C65.2367 9.39223 64.7318 9.33177 64.247 9.33177C63.0553 9.33177 61.9645 9.59378 61.0556 10.1178C60.1467 10.6418 59.4195 11.3674 58.9549 12.2744C58.4702 13.2015 58.2278 14.2698 58.2278 15.4992C58.2278 16.5674 58.4702 17.5147 58.9347 18.3814C59.3993 19.2279 60.0457 19.9132 60.9142 20.3767C61.7424 20.8403 62.7119 21.0822 63.8026 21.0822C65.0549 21.0822 66.1255 20.8201 66.9738 20.3364L66.994 20.3163V17.8977L66.893 17.9783C66.5093 18.2605 66.0649 18.5023 65.6205 18.6434C65.1559 18.8046 64.7318 18.8853 64.3682 18.8853C63.3179 18.8853 62.4897 18.5829 61.904 17.9178C61.298 17.2729 60.995 16.386 60.995 15.2775C60.995 14.1287 61.298 13.2217 61.9242 12.5566C62.5503 11.8915 63.3785 11.5488 64.3884 11.5488C65.2367 11.5488 66.1053 11.831 66.893 12.3953L66.994 12.476V9.91626L66.9738 9.89611C66.6304 9.75502 66.2467 9.59378 65.7215 9.49301ZM74.3867 9.41239C73.7404 9.41239 73.1344 9.61394 72.6093 10.0372C72.1649 10.4 71.8619 10.924 71.5993 11.5488H71.5791V9.59378H68.9533V20.7597H71.5791V15.0558C71.5791 14.0884 71.7811 13.2822 72.2255 12.6977C72.6698 12.093 73.2354 11.7907 73.9222 11.7907C74.1646 11.7907 74.4069 11.8511 74.7099 11.8915C74.9927 11.9721 75.1947 12.0527 75.3361 12.1535L75.4371 12.2341V9.61394L75.3765 9.59378C75.1947 9.47285 74.8311 9.41239 74.3867 9.41239ZM81.5371 9.35192C79.699 9.35192 78.2245 9.89611 77.1944 10.9643C76.144 12.0325 75.6391 13.5039 75.6391 15.3581C75.6391 17.0915 76.1642 18.5023 77.1742 19.5302C78.1841 20.538 79.5576 21.062 81.2745 21.062C83.0722 21.062 84.5063 20.5178 85.5364 19.4294C86.5867 18.3411 87.0917 16.8899 87.0917 15.0961C87.0917 13.3225 86.6069 11.9116 85.6172 10.8837C84.6679 9.8558 83.2742 9.35192 81.5371 9.35192ZM83.6377 17.938C83.153 18.5628 82.3854 18.8651 81.4361 18.8651C80.4867 18.8651 79.7192 18.5628 79.1738 17.8977C78.6285 17.2729 78.3659 16.3659 78.3659 15.217C78.3659 14.0279 78.6487 13.1209 79.1738 12.476C79.7192 11.831 80.4665 11.5085 81.4159 11.5085C82.345 11.5085 83.0722 11.8108 83.5973 12.4356C84.1225 13.0604 84.4053 13.9674 84.4053 15.1566C84.3649 16.3659 84.1427 17.3132 83.6377 17.938ZM92.9493 14.2294C92.1212 13.8868 91.596 13.6248 91.3536 13.4031C91.1516 13.2015 91.0506 12.9194 91.0506 12.5566C91.0506 12.2542 91.1718 11.9519 91.4748 11.7504C91.7778 11.5488 92.1212 11.448 92.6261 11.448C93.0705 11.448 93.5351 11.5287 93.9794 11.6496C94.4238 11.7705 94.8278 11.9519 95.151 12.1938L95.252 12.2744V9.81549L95.1914 9.79533C94.8884 9.6744 94.4844 9.55347 93.9996 9.4527C93.5149 9.37208 93.0705 9.33177 92.7069 9.33177C91.4546 9.33177 90.4245 9.63409 89.6165 10.2992C88.8086 10.924 88.4248 11.7705 88.4248 12.7581C88.4248 13.2822 88.5056 13.7457 88.6874 14.1287C88.8692 14.5116 89.1318 14.8744 89.4953 15.1767C89.8589 15.4589 90.3841 15.7814 91.1112 16.0837C91.7172 16.3457 92.1818 16.5473 92.4645 16.7085C92.7473 16.8698 92.9291 17.0511 93.0705 17.1922C93.1715 17.3535 93.2321 17.555 93.2321 17.817C93.2321 18.5628 92.6665 18.9256 91.5152 18.9256C91.0708 18.9256 90.6063 18.8449 90.0609 18.6636C89.5155 18.4822 89.0106 18.2201 88.5864 17.9178L88.4854 17.8372V20.3969L88.546 20.417C88.9298 20.5984 89.3943 20.7194 89.9599 20.8605C90.5255 20.9612 91.0304 21.0418 91.4748 21.0418C92.8281 21.0418 93.939 20.7395 94.7268 20.0744C95.5347 19.4294 95.9589 18.6031 95.9589 17.5349C95.9589 16.7891 95.7569 16.124 95.3126 15.6201C94.7268 15.1364 93.9996 14.6325 92.9493 14.2294ZM102.887 9.35192C101.049 9.35192 99.5745 9.89611 98.5443 10.9643C97.5142 12.0325 96.9891 13.5039 96.9891 15.3581C96.9891 17.0915 97.5142 18.5023 98.5241 19.5302C99.5341 20.538 100.908 21.062 102.624 21.062C104.422 21.062 105.856 20.5178 106.886 19.4294C107.937 18.3411 108.442 16.8899 108.442 15.0961C108.442 13.3225 107.957 11.9116 106.967 10.8837C106.018 9.8558 104.624 9.35192 102.887 9.35192ZM104.968 17.938C104.483 18.5628 103.715 18.8651 102.766 18.8651C101.796 18.8651 101.049 18.5628 100.504 17.8977C99.9583 17.2729 99.6957 16.3659 99.6957 15.217C99.6957 14.0279 99.9785 13.1209 100.504 12.476C101.049 11.831 101.796 11.5085 102.746 11.5085C103.655 11.5085 104.402 11.8108 104.927 12.4356C105.452 13.0604 105.735 13.9674 105.735 15.1566C105.735 16.3659 105.472 17.3132 104.968 17.938ZM122.48 11.7504V9.59378H119.834V6.28836L119.753 6.30851L117.248 7.05425L117.188 7.0744V9.59378H113.229V8.18293C113.229 7.53797 113.39 7.03409 113.673 6.71161C113.956 6.38913 114.38 6.22789 114.905 6.22789C115.269 6.22789 115.653 6.30851 116.077 6.48991L116.178 6.55037V4.27285L116.117 4.2527C115.754 4.13177 115.269 4.05115 114.643 4.05115C113.855 4.05115 113.168 4.23254 112.542 4.53487C111.916 4.8775 111.451 5.34107 111.108 5.96588C110.765 6.57053 110.583 7.2558 110.583 8.04185V9.59378H108.745V11.7302H110.583V20.7597H113.229V11.7504H117.188V17.4946C117.188 19.8527 118.299 21.0418 120.521 21.0418C120.884 21.0418 121.268 20.9814 121.631 20.9209C122.015 20.8403 122.298 20.7395 122.46 20.6589L122.48 20.6387V18.4822L122.379 18.5628C122.217 18.6636 122.076 18.7442 121.833 18.8046C121.631 18.8651 121.45 18.8853 121.308 18.8853C120.783 18.8853 120.42 18.7643 120.157 18.462C119.915 18.1798 119.793 17.7163 119.793 17.031V11.7504H122.48Z" fill="#737373"/>
<path d="M0.5 0H12.8818V12.355H0.5V0Z" fill="#F25022"/>
<path d="M14.1744 0H26.5562V12.355H14.1744V0Z" fill="#7FBA00"/>
<path d="M0.5 13.645H12.8818V26.0001H0.5V13.645Z" fill="#00A4EF"/>
<path d="M14.1744 13.645H26.5562V26.0001H14.1744V13.645Z" fill="#FFB900"/>
</g>
<defs>
<clipPath id="clip0_2_155">
<rect width="122" height="26" fill="white" transform="translate(0.5)"/>
</clipPath>
</defs>
</svg>

<svg xmlns="http://www.w3.org/2000/svg" width="123" height="26" fill="none"><g clip-path="url(#a)"><path fill="#737373" d="m43.564 14.975-.728 2.056h-.06a14.582 14.582 0 0 0-.707-2.015L38.17 5.24h-3.817v15.58h2.525v-9.614c0-.604 0-1.29-.02-2.136-.02-.424-.061-.746-.081-.988h.06c.122.605.263 1.048.364 1.33l4.686 11.368h1.778L48.31 9.312c.101-.262.202-.786.303-1.23h.06c-.06 1.149-.1 2.177-.12 2.802v9.876h2.686V5.2h-3.676l-4 9.775Zm10.22-5.381h2.626V20.76h-2.626V9.594Zm1.333-4.716c-.444 0-.808.16-1.11.443a1.429 1.429 0 0 0-.465 1.088c0 .424.161.786.464 1.069.303.282.667.423 1.111.423.445 0 .828-.161 1.111-.423.303-.283.465-.645.465-1.069 0-.423-.162-.786-.465-1.088-.263-.282-.646-.443-1.11-.443Zm10.605 4.615c-.485-.1-.99-.161-1.475-.161-1.192 0-2.282.262-3.191.786-.91.524-1.636 1.25-2.101 2.156-.485.928-.727 1.996-.727 3.225 0 1.068.242 2.016.707 2.882.464.847 1.11 1.532 1.98 1.996.827.463 1.797.705 2.888.705 1.252 0 2.323-.262 3.17-.746l.021-.02v-2.418l-.101.08a4.515 4.515 0 0 1-1.272.665c-.465.162-.89.242-1.253.242-1.05 0-1.878-.302-2.464-.967-.606-.645-.909-1.532-.909-2.64 0-1.15.303-2.056.93-2.721.625-.665 1.454-1.008 2.463-1.008.849 0 1.717.282 2.505.846l.101.081v-2.56l-.02-.02c-.344-.141-.727-.302-1.252-.403Zm8.665-.08c-.647 0-1.253.2-1.778.624-.444.363-.747.887-1.01 1.512h-.02V9.594h-2.626V20.76h2.626v-5.704c0-.968.202-1.774.647-2.358.444-.605 1.01-.907 1.696-.907.243 0 .485.06.788.1.283.081.485.162.626.262l.101.081v-2.62l-.06-.02c-.182-.121-.546-.182-.99-.182Zm7.15-.061c-1.838 0-3.313.544-4.343 1.612-1.05 1.069-1.555 2.54-1.555 4.394 0 1.733.525 3.144 1.535 4.172 1.01 1.008 2.384 1.532 4.1 1.532 1.798 0 3.232-.544 4.262-1.633 1.05-1.088 1.556-2.54 1.556-4.333 0-1.774-.485-3.184-1.475-4.212-.95-1.028-2.343-1.532-4.08-1.532Zm2.1 8.586c-.484.625-1.252.927-2.2.927-.95 0-1.718-.302-2.263-.967-.546-.625-.808-1.532-.808-2.681 0-1.19.283-2.096.808-2.741.545-.645 1.292-.968 2.242-.968.929 0 1.656.303 2.181.928.526.624.808 1.531.808 2.72-.04 1.21-.262 2.157-.767 2.782Zm9.312-3.709c-.828-.342-1.353-.604-1.595-.826-.202-.202-.303-.484-.303-.846 0-.303.12-.605.424-.807.303-.201.646-.302 1.151-.302.444 0 .91.08 1.353.202.445.12.849.302 1.172.544l.101.08V9.815l-.06-.02A7.3 7.3 0 0 0 94 9.453c-.485-.08-.93-.121-1.293-.121-1.252 0-2.282.302-3.09.967-.808.625-1.192 1.472-1.192 2.46 0 .523.08.987.262 1.37.182.383.445.745.808 1.048.364.282.89.604 1.616.907.606.262 1.07.463 1.353.625.283.16.465.342.606.483.102.162.162.363.162.625 0 .746-.566 1.109-1.717 1.109-.444 0-.909-.081-1.454-.262a5.625 5.625 0 0 1-1.475-.746l-.1-.08v2.559l.06.02c.384.181.848.302 1.414.443.566.101 1.07.182 1.515.182 1.353 0 2.464-.303 3.252-.968.808-.645 1.232-1.47 1.232-2.54 0-.745-.202-1.41-.646-1.914a8.195 8.195 0 0 0-2.364-1.39Zm9.938-4.877c-1.838 0-3.313.544-4.343 1.612-1.03 1.069-1.555 2.54-1.555 4.394 0 1.733.525 3.144 1.535 4.172 1.01 1.008 2.384 1.532 4.1 1.532 1.798 0 3.232-.544 4.262-1.633 1.051-1.088 1.556-2.54 1.556-4.333 0-1.774-.485-3.184-1.475-4.212-.949-1.028-2.343-1.532-4.08-1.532Zm2.081 8.586c-.485.625-1.253.927-2.202.927-.97 0-1.717-.302-2.262-.967-.546-.625-.808-1.532-.808-2.681 0-1.19.282-2.096.808-2.741.545-.645 1.292-.968 2.242-.968.909 0 1.656.303 2.181.928.525.624.808 1.531.808 2.72 0 1.21-.263 2.157-.767 2.782Zm17.512-6.188V9.594h-2.646V6.288l-.081.02-2.505.746-.06.02v2.52h-3.959V8.183c0-.645.161-1.149.444-1.471.283-.323.707-.484 1.232-.484.364 0 .748.08 1.172.262l.101.06V4.273l-.061-.02c-.363-.121-.848-.202-1.474-.202-.788 0-1.475.182-2.101.484a3.498 3.498 0 0 0-1.434 1.43c-.343.606-.525 1.29-.525 2.077v1.552h-1.838v2.136h1.838v9.03h2.646v-9.01h3.959v5.745c0 2.358 1.111 3.547 3.333 3.547.363 0 .747-.06 1.11-.121.384-.08.667-.181.829-.262l.02-.02v-2.157l-.101.08c-.162.102-.303.182-.546.243-.202.06-.383.08-.525.08-.525 0-.888-.12-1.151-.423-.242-.282-.364-.746-.364-1.431v-5.28h2.687Z"/><path fill="#F25022" d="M.5 0h12.382v12.355H.5V0Z"/><path fill="#7FBA00" d="M14.174 0h12.382v12.355H14.174V0Z"/><path fill="#00A4EF" d="M.5 13.645h12.382V26H.5V13.645Z"/><path fill="#FFB900" d="M14.174 13.645h12.382V26H14.174V13.645Z"/></g><defs><clipPath id="a"><path fill="#fff" d="M.5 0h122v26H.5z"/></clipPath></defs></svg>
